X:511
T:The sailor's hornpipe
R:Hornpipe
O:Ireland
S:O'Neill's
B:O'Neill's 1578
Z:Transcription, corrections,chords:Mike Long
M:4/4
L:1/8
K:D
(3(ABc)|\
"D"dcdA FAdf|"A"edcB A2fg|"D"afaf "G"bagf|"A"edcB A2fe|\
"D"dcdA FAdf|
"A"edcB A2fg|"D"afdf "A"bgec|"D"d2d2 d2:|\
|:(3(efg)|\
"D"afaf d2ga|"G"bgbg e2fg|
"D"afaf "G"bagf|"A"edcB A2fe|\
"D"dcdA FAdf|"A"edcB A2fg|"D"afdf "A"bgec|"D"d2d2 d2:|
